X: 13484
T: Flower Of The Flock, The
R: reel
M: 4/4
K: Gmajor
|:GE|DGGB AGGA|BcBA BGEG|DEGB AGGB|dBAB G2:|
Bd|g2 {a}ge d2{e}dB|cABG AGFG|g2 {a}ge d2Bd|eaab agef|
g2 {a}ge d2{e}dB|cABG AGFG|DEGB AGGB|dBAB G2||

